X:1
T:Mazurka GC (mz06461)
T:Hanny Christen. Bd.IV  Aargau, Basel I. S.165 (mz06461) orig. G,C
T: Basel - Repertoire der 'Dorfmusik Binningen. S.140-201
T:Ãœberliefert durch Jakob LÃ¼scher-MÃ¼ller
%%MIDI program 21
R:Mazurka
M:3/4
L:1/8
K:G %%MIDI gchordon
"G"d>b .b2.b2 | "D7"d>a .a2.a2 | "G"d>g .g2.g2 | "D7"fga4 | d>c' .c'2.c'2 | d>b .b2.b2 | d>a .a2.a2 | 
"G"gab4 | d>b .b2.b2 | "D7"d>a .a2.a2 | "G"d>g.g2.g2 | "D"fga4 | "A7"^c'>gg2b2 | ("D"bf) a3f | 
("A7"fA) f3e | "D".d2.d2z2 |: "G"gz de de | "D7"Pd2 (a>g)f2 | a2 de de | "G"Pd2 b>ag2 | ("C"ec') c'>ba2 | 
("G"db) b>a g2 | "D7"ca a>g f>a |1 "G"g2d4 :|2 "G"g2g2g>e |: [K:C] ("G7"d>f)f2 (a>f) | "C"e>g Tg4 | ("F"f>a)a2 "G7"b>a | 
("C"ge') c'2g>e | ("G7"d>f)f2 a>f | "C"e>g Tg4 | "E7"^g>g (ba) (^fg) |1 e2"G7"g2 g>e :|2 e2!>!"G7"g4 |: "C"e>g a>e g>a | 
"Dm"gz!>!f4 | "G7"f>g bf a>b | "C"az!>!g4 | "A7"e>g ae g^c | "Dm"ez d3c | ("G7"Ba) (gf) A>B | "C"cz.c'2 z2 |] 
W:
W:Anmerkung H.C.: Alle Stimmen bei Hr. LÃ¼scher, Holestrasse 31
% mz06461
% Dez 16, 2016

